assets/symbols/mulberry/jumper.svg

<svg height="850.394" viewBox="0 0 850.394 850.394" width="850.394" xmlns="http://www.w3.org/2000/svg"><g fill="#33a02c"><path d="m764.82 629.42 6.439 49.521-103.8 13.47-44.65-198.53-23.039-102.481s-7.68-27.03-7.68-46.1c0-119.06 60.66-169.59 60.66-169.59l.02-.03c41.07 22.27 55.82 92.16 55.82 92.16z"/><path d="m652.77 175.68-.02.03s-60.66 50.53-60.66 169.59c0 19.07 7.68 46.1 7.68 46.1l23.04 102.48-19.52 248.96h-341.84l-24.97-248.94v-.011l23.05-102.49s7.68-27.03 7.68-46.1c0-119.06-60.67-169.59-60.67-169.59l-.02-.03c6.18-3.35 12.95-5.62 20.36-6.42 17.02-1.82 84.38-17.85 120.71-28.7-5.27 8.2-8.2 17.32-8.2 26.94 0 35.71 41.22 75.06 91.06 75.06 49.859 0 89.45-39.35 89.45-75.06 0-9.67-2.96-18.84-8.28-27.08 36.33 10.86 103.77 27.02 120.79 28.84 7.41.801 14.18 3.071 20.36 6.421z"/><path d="m511.62 140.42c5.32 8.24 8.28 17.41 8.28 27.08 0 35.71-39.591 75.06-89.45 75.06-49.84 0-91.06-39.35-91.06-75.06 0-9.62 2.93-18.74 8.2-26.94 14.25-22.26 45.64-37.71 82.05-37.71 36.36 0 67.68 15.39 81.98 37.57zm-244.41 204.88c0 19.07-7.68 46.1-7.68 46.1l-23.05 102.49v.011l-44.64 198.51-103.8-13.47 6.43-49.521 56.23-361.58s14.76-69.89 55.82-92.16l.02.03s60.67 50.53 60.67 169.59z"/></g><g fill="none"><g stroke="#000" stroke-width="14"><path d="m511.62 140.42c5.32 8.24 8.28 17.41 8.28 27.08 0 35.71-39.591 75.06-89.45 75.06-49.84 0-91.06-39.35-91.06-75.06 0-9.62 2.93-18.74 8.2-26.94 14.25-22.26 45.64-37.71 82.05-37.71 36.36 0 67.68 15.39 81.98 37.57z"/><path d="m557.61 157.06c.21 2.15.31 4.32.31 6.51 0 51.93-57.06 108.76-127.47 108.76-70.4 0-127.47-56.83-127.47-108.76 0-1.83.11-3.69.31-5.56"/><path d="m236.48 493.9-44.64 198.51-103.8-13.47 6.43-49.521 56.23-361.58s14.76-69.89 55.82-92.16c6.18-3.35 12.95-5.62 20.36-6.42 17.02-1.82 84.38-17.85 120.71-28.7.02-.01.03-.02.05-.02"/><path d="m206.54 175.71s60.67 50.53 60.67 169.59c0 19.07-7.68 46.1-7.68 46.1l-23.05 102.49m416.27-318.18s-60.66 50.53-60.66 169.59c0 19.07 7.68 46.1 7.68 46.1l23.04 102.48 44.65 198.53 103.8-13.47-6.439-49.521-56.23-361.58s-14.75-69.89-55.82-92.16c-6.18-3.35-12.949-5.62-20.359-6.42-17.021-1.82-84.46-17.98-120.79-28.84-.01 0-.03-.01-.04-.01"/><path d="m622.81 493.88-19.52 248.96h-341.84l-24.97-248.94v-.01"/></g><path d="m0 0h850.394v850.394h-850.394z"/><path d="m94 638 104 14" stroke="#000" stroke-width="14"/><path d="m106 640-6 36m20-34-6 38m22-36-6 34m34-30-8 36m22-34-8 36m-22-40-6 34" stroke="#000" stroke-width="7"/><path d="m662 658 104-16" stroke="#000" stroke-width="14"/><path d="m676 654 6 32m8-34 8 34m8-36 6 32m10-36 6 36m10-38 6 36m8-38 2 36" stroke="#000" stroke-width="7"/><path d="m258 702h346" stroke="#000" stroke-width="14"/><path d="m272 700 2 40m16-40v40m18-40v38m18-38v38m16-36v36m16-36v38m18-38v38m16-38v38m20-38-2 38m22-38v42m16-42v40m16-42v42m18-42v40m18-40v38m18-36v40m18-40-2 36m22-36v36m16-38v38m16-36v36" stroke="#000" stroke-width="7"/></g></svg>

<svg xmlns="http://www.w3.org/2000/svg" width="850.394" height="850.394" viewBox="0 0 850.394 850.394" overflow="visible"><g fill="#33a02c"><path d="M764.82 629.42l6.439 49.521-103.8 13.47-44.65-198.53L599.77 391.4s-7.68-27.03-7.68-46.1c0-119.06 60.66-169.59 60.66-169.59l.02-.03c41.07 22.27 55.82 92.16 55.82 92.16l56.23 361.58z"/><path d="M652.77 175.68l-.02.03s-60.66 50.53-60.66 169.59c0 19.07 7.68 46.1 7.68 46.1l23.04 102.48-19.52 248.96H261.45L236.48 493.9v-.011l23.05-102.49s7.68-27.03 7.68-46.1c0-119.06-60.67-169.59-60.67-169.59l-.02-.03c6.18-3.35 12.95-5.62 20.36-6.42 17.02-1.82 84.38-17.85 120.71-28.7-5.27 8.2-8.2 17.32-8.2 26.94 0 35.71 41.22 75.06 91.06 75.06 49.859 0 89.45-39.35 89.45-75.06 0-9.67-2.96-18.84-8.28-27.08 36.33 10.86 103.77 27.02 120.79 28.84 7.41.801 14.18 3.071 20.36 6.421z"/><path d="M511.62 140.42c5.32 8.24 8.28 17.41 8.28 27.08 0 35.71-39.591 75.06-89.45 75.06-49.84 0-91.06-39.35-91.06-75.06 0-9.62 2.93-18.74 8.2-26.94 14.25-22.26 45.64-37.71 82.05-37.71 36.36 0 67.68 15.39 81.98 37.57zM267.21 345.3c0 19.07-7.68 46.1-7.68 46.1l-23.05 102.49v.011l-44.64 198.51-103.8-13.47 6.43-49.521 56.23-361.58s14.76-69.89 55.82-92.16l.02.03s60.67 50.53 60.67 169.59z"/></g><g fill="none" stroke="#000" stroke-width="14"><path d="M511.62 140.42c5.32 8.24 8.28 17.41 8.28 27.08 0 35.71-39.591 75.06-89.45 75.06-49.84 0-91.06-39.35-91.06-75.06 0-9.62 2.93-18.74 8.2-26.94 14.25-22.26 45.64-37.71 82.05-37.71 36.36 0 67.68 15.39 81.98 37.57z"/><path d="M557.61 157.06c.21 2.15.31 4.32.31 6.51 0 51.93-57.06 108.76-127.47 108.76-70.4 0-127.47-56.83-127.47-108.76 0-1.83.11-3.69.31-5.56"/><path d="M236.48 493.9l-44.64 198.51-103.8-13.47 6.43-49.521 56.23-361.58s14.76-69.89 55.82-92.16c6.18-3.35 12.95-5.62 20.36-6.42 17.02-1.82 84.38-17.85 120.71-28.7.02-.01.03-.02.05-.02"/><path d="M206.54 175.71s60.67 50.53 60.67 169.59c0 19.07-7.68 46.1-7.68 46.1l-23.05 102.49M652.75 175.71s-60.66 50.53-60.66 169.59c0 19.07 7.68 46.1 7.68 46.1l23.04 102.48 44.65 198.53 103.8-13.47-6.439-49.521-56.23-361.58s-14.75-69.89-55.82-92.16c-6.18-3.35-12.949-5.62-20.359-6.42-17.021-1.82-84.46-17.98-120.79-28.84-.01 0-.03-.01-.04-.01"/><path d="M622.81 493.88l-19.52 248.96H261.45L236.48 493.9v-.01"/></g><path fill="none" d="M0 0h850.394v850.394H0z"/><path fill="none" stroke="#000" stroke-width="14" d="M94 638l104 14"/><path fill="none" stroke="#000" stroke-width="7" d="M106 640l-6 36M120 642l-6 38M136 644l-6 34M164 648l-8 36M178 650l-8 36M148 646l-6 34"/><path fill="none" stroke="#000" stroke-width="14" d="M662 658l104-16"/><path fill="none" stroke="#000" stroke-width="7" d="M676 654l6 32M690 652l8 34M706 650l6 32M722 646l6 36M738 644l6 36M752 642l2 36"/><path fill="none" stroke="#000" stroke-width="14" d="M258 702h346"/><path fill="none" stroke="#000" stroke-width="7" d="M272 700l2 40M290 700v40M308 700v38M326 700v38M342 702v36M358 702v38M376 702v38M392 702v38M412 702l-2 38M432 702v42M448 702v40M464 700v42M482 700v40M500 700v38M518 702v40M536 702l-2 36M556 702v36M572 700v38M588 702v36"/></svg>
